src/24x24/places/folder-gruvbox-mix-purple-visiting.svg

<?xml version="1.0" encoding="UTF-8"?>
<svg width="24" height="24" version="1" xmlns="http://www.w3.org/2000/svg">
 <rect x="2" y="9.5" width="20" height="12" rx="1" ry="1" opacity=".2"/>
 <path d="m2 17c0 0.554 0.446 1 1 1h18c0.554 0 1-0.446 1-1v-11c0-0.554-0.446-1-1-1h-9c-1.5 0-2-2-3.5-2h-5.5c-0.554 0-1 0.446-1 1" fill="#924f79"/>
 <rect x="2" y="8.5" width="20" height="12" rx="1" ry="1" opacity=".2"/>
 <rect x="4" y="7" width="16" height="8" rx="1" ry="1" fill="#E6DCBB"/>
 <rect x="2" y="9" width="20" height="12" rx="1" ry="1" fill="#d3869b"/>
 <path d="m3 3c-0.554 0-1 0.446-1 1v0.5c0-0.554 0.446-1 1-1h5.5c1.5 0 2 2 3.5 2h9c0.554 0 1 0.446 1 1v-0.5c0-0.554-0.446-1-1-1h-9c-1.5 0-2-2-3.5-2z" fill="#E6DCBB" opacity=".1"/>
 <path d="m3 9c-0.554 0-1 0.446-1 1v0.654l17.918 10.346h1.082c0.554 0 1-0.446 1-1v-0.299l-18.537-10.701h-0.4629zm3.9277 0 15.072 8.701v-2.5l-10.742-6.201h-4.3303zm7.7953 0 7.277 4.201v-2.5l-2.947-1.701h-4.33zm-12.723 3.654v2.5l10.125 5.846h4.328l-14.453-8.346zm0 4.5v2.5l2.3301 1.346h4.3301l-6.6602-3.846z" fill="#423B3A"/>
</svg>

<svg xmlns="http://www.w3.org/2000/svg" width="24" height="24" version="1">
 <rect style="opacity:0.2" width="20" height="12" x="2" y="9.5" rx="1" ry="1"/>
 <path style="fill:#924f79" d="M 2,17 C 2,17.554 2.446,18 3,18 H 21 C 21.554,18 22,17.554 22,17 V 6 C 22,5.446 21.554,5 21,5 H 12 C 10.5,5 10,3 8.5,3 H 3 C 2.446,3 2,3.446 2,4"/>
 <rect style="opacity:0.2" width="20" height="12" x="2" y="8.5" rx="1" ry="1"/>
 <rect style="fill:#E6DCBB" width="16" height="8" x="4" y="7" rx="1" ry="1"/>
 <rect style="fill:#d3869b" width="20" height="12" x="2" y="9" rx="1" ry="1"/>
 <path style="opacity:0.1;fill:#E6DCBB" d="M 3,3 C 2.446,3 2,3.446 2,4 V 4.5 C 2,3.946 2.446,3.5 3,3.5 H 8.5 C 10,3.5 10.5,5.5 12,5.5 H 21 C 21.554,5.5 22,5.946 22,6.5 V 6 C 22,5.446 21.554,5 21,5 H 12 C 10.5,5 10,3 8.5,3 Z"/>
 <path style="fill:#423B3A" d="M 3 9 C 2.446 9 2 9.446 2 10 L 2 10.654 L 19.918 21 L 21 21 C 21.554 21 22 20.554 22 20 L 22 19.701 L 3.4629 9 L 3 9 z M 6.9277 9 L 22 17.701 L 22 15.201 L 11.258 9 L 6.9277 9 z M 14.723 9 L 22 13.201 L 22 10.701 L 19.053 9 L 14.723 9 z M 2 12.654 L 2 15.154 L 12.125 21 L 16.453 21 L 2 12.654 z M 2 17.154 L 2 19.654 L 4.3301 21 L 8.6602 21 L 2 17.154 z"/>
</svg>
